icons/inbox-help-outline.svg

<svg xmlns="http://www.w3.org/2000/svg" width="24" height="24" viewBox="0 0 24 24">
  <path d="M19,2 C20.5976809,2 21.9036609,3.24891996 21.9949073,4.82372721 L22,5 L22,19 C22,20.5976809 20.75108,21.9036609 19.1762728,21.9949073 L19,22 L5,22 C3.40231912,22 2.09633912,20.75108 2.00509269,19.1762728 L2,19 L2,5 C2,3.40231912 3.24891996,2.09633912 4.82372721,2.00509269 L5,2 L19,2 Z M19,4 L5,4 C4.48716416,4 4.06449284,4.38604019 4.00672773,4.88337887 L4,5 L4,14 L6,14 C7.1045695,14 8,14.8954305 8,16 C8,17.1045695 8.8954305,18 10,18 L14,18 C15.1045695,18 16,17.1045695 16,16 C16,14.8954305 16.8954305,14 18,14 L20,14 L20,5 C20,4.48716416 19.6139598,4.06449284 19.1166211,4.00672773 L19,4 Z M12.0001686,12 C12.5524586,12 13.0001686,12.4477 13.0001686,13 C13.0001686,13.5523 12.5524586,14 12.0001686,14 C11.4478886,14 11.0001686,13.5523 11.0001686,13 C11.0001686,12.4477 11.4478886,12 12.0001686,12 Z M12.0001686,6 C12.5537486,6 13.1555886,6.16344 13.6376686,6.525 C14.1397686,6.90158 14.5001686,7.48991 14.5001686,8.25 C14.5001686,8.69838 14.3847686,9.07994 14.1710686,9.4004 C13.9664386,9.70737 13.7009186,9.91339 13.4787086,10.06154 C13.3700286,10.134 13.2594286,10.20036 13.1657686,10.25656 L13.1657686,10.25656 C13.0591686,10.32052 12.9769786,10.37001 12.9005986,10.42093 C12.7478286,10.52279 12.6695886,10.59803 12.6242286,10.66609 C12.3944886,11.01075 11.9288386,11.10391 11.5841786,10.87417 C11.2395186,10.64442 11.1463586,10.17878 11.3760986,9.83412 C11.5807386,9.52712 11.8462486,9.32107 12.0684786,9.1729 C12.1772086,9.10041 12.2878586,9.03402 12.3815586,8.9778 L12.3815586,8.9778 C12.4880486,8.9139 12.5702386,8.86441 12.6466286,8.81349 C12.7994086,8.71162 12.8776486,8.63639 12.9229986,8.56835 C12.9593586,8.51381 13.0001686,8.42662 13.0001686,8.25 C13.0001686,8.01009 12.9022286,7.84842 12.7376686,7.725 C12.5530786,7.58656 12.2799186,7.5 12.0001686,7.5 C11.6314086,7.5 11.4046986,7.59004 11.2599386,7.68654 C11.1104886,7.78617 11.0014986,7.92438 10.9209886,8.08541 C10.7357486,8.45589 10.2852386,8.60606 9.91475858,8.42082 C9.54426858,8.23558 9.39409858,7.78507 9.57934858,7.41459 C9.74882858,7.07562 10.0148386,6.71383 10.4278886,6.43846 C10.8456386,6.15996 11.3689286,6 12.0001686,6 Z"/>
</svg>

<svg xmlns="http://www.w3.org/2000/svg" viewBox="0 0 24 24">
  <path d="M19 2a3 3 0 0 1 3 2.82V19a3 3 0 0 1-2.82 3H5a3 3 0 0 1-3-2.82V5a3 3 0 0 1 2.82-3H19zm0 2H5a1 1 0 0 0-1 .88V14h2a2 2 0 0 1 2 2c0 1.1.9 2 2 2h4a2 2 0 0 0 2-2c0-1.1.9-2 2-2h2V5a1 1 0 0 0-.88-1H19zm-7 8a1 1 0 1 1 0 2 1 1 0 0 1 0-2zm0-6c.55 0 1.16.16 1.64.53.5.37.86.96.86 1.72a2.03 2.03 0 0 1-1.02 1.81l-.31.2-.27.16a.96.96 0 0 0-.28.25.75.75 0 0 1-1.24-.84c.2-.3.47-.5.69-.66l.31-.2c.1-.06.19-.1.27-.16.15-.1.23-.17.27-.24a.54.54 0 0 0 .08-.32c0-.24-.1-.4-.26-.53A1.26 1.26 0 0 0 12 7.5c-.37 0-.6.09-.74.19a1 1 0 0 0-.34.4.75.75 0 0 1-1.34-.68c.17-.33.43-.7.85-.97.42-.28.94-.44 1.57-.44z"/>
</svg>
